X:1
T:Lady Flora Charlotte Hastings
T:Lady Flora Charlotte Hastings
T:Nathaniel Gow (1763-1831)
C:Nathaniel Gow (1763-1831)
L:1/8
M:4/4
K:Bb
V:1 treble 
V:1
 D | .e/(d/c/B/) A<c B<d F2 | (G/F/E) B>G FB, Dd | e/(d/c/B/) A<c B<d F2 | %4
 B(c/d/ e/) f3/2 d/ gceg | e/(d/c/B/) A<c B<d F2 | E/(F/G/A/) B>G FB,DF | (G/F/E) (F/E/D) BFdB | %8
 ecdB A(cde) || fdd>g (g/f/).e/.d/{d} b2 |"^tr" f2{ef} (g/f/)._e/.d/ fddg | fddg (g/f/)e/d/{d} b2 | %12
{a} b2 fd gceg | fdd>g (g/f/).e/.d/{a} b2 |"^tr" f2{ef} (g/f/)._e/.d/ fddf |{a} (b2 a)(f g)(ef)(d | %16
 e)(cd)B ABcd || %17

